X:1
T:To God Be the Glory
T:To God Be the Glory
%%score ( 1 2 ) ( 3 4 )
L:1/8
M:3/4
K:G
V:1 treble nm="Piano" snm="Pno."
V:2 treble 
V:3 bass nm="Piano" snm="Pno."
V:4 bass 
V:1
 [B,D]2 | D4 [CE][CF] | [B,G]2 [B,D]2 [DG]2 | [DA]2 D2 [DA]2 | [DB]4 [DB]2 | [Ec]2 [CE]2 [Ec]2 | %6
w: 1~To|God be the|glo- ry, great|things he hath|done, so|loved he the|
w: 2~O|per- fect re-|demp- tion, the|pur- chase of|blood, to|ev- ery be-|
w: 3~Great|things he hath|taught us, great|things he hath|done, and|great our re-|
 [DB]2 [DG]2 [DB]2 | [^CB]2 [CA]2 E2 | [DA]4 D2 | D4 [CE][CF] | [B,G]2 [B,D]2 [DG]2 | %11
w: world that he|gave us his|Son, who|yiel- ded his|life an a-|
w: lie- ver the|pro- mise of|God; the|vil- est of-|fen- der who|
w: joic- ing through|Je- sus the|Son; but|pu- rer, and|high- er and|
 [DA]2 D2 [DA]2 | [DB]4 [=FB]2 | [Ed]2 [Ec]2 [EA]2 | [DG]2 [DF]2 [DG]2 | [DB]2 [DB]2 [CA]2 | %16
w: tone- ment for|sin, and|o- pened the|life- gate that|all may go|
w: tru- ly be-|lieves that|mo- ment from|Je- sus a|par- don re-|
w: grea- ter will|be our|won- der, our|tran- sport, when|Je- sus we|
 [B,G]4 ||"^Refrain" [DB]>[Dc] | [Gd]4 [DB]>[Dc] | [Gd]4 [Dd]>[DB] | [DG]2 [DA]2 [DB]2 | %21
w: in.|Praise the|Lord, praise the|Lord, let the|earth hear his|
w: ceives.|||||
w: see.|||||
 [DA]4 [DA]>[DB] | [Dc]4 [DA]>[DB] | [Dc]4 [Dc][DA] | [Dd]2 [Dd]2 [Dc]2 | [DB]4 [B,D]2 | %26
w: voice! Praise the|Lord, praise the|Lord, let the|peo- ple re-|joice! O|
w: |||||
w: |||||
 D4 [CE][CF] | [B,G]2 [B,D]2 [DG]2 | [DA]2 D2 [DA]2 | [DB]4 [FB]2 | [Ed]2 [Ec]2 [EA]2 | %31
w: come to the|Fa- ther through|Je- sus the|Son, and|give him the|
w: |||||
w: |||||
 [DG]2 [DF]2 [DG]2 | [DB]2 [DB]2 [CA]2 | [B,G]4 |] %34
w: glo- ry, great|things he hath|done|
w: |||
w: |||
V:2
 x2 | (B,2 D2) x2 | x6 | x2 D2 x2 | x6 | x6 | x6 | x4 E2 | x4 =C2 | (B,2 D2) x2 | x6 | x2 D2 x2 | %12
 x6 | x6 | x6 | x6 | x4 || x2 | x6 | x6 | x6 | x6 | x6 | x6 | x6 | x6 | (B,2 D2) x2 | x6 | %28
 x2 D2 x2 | x6 | x6 | x6 | x6 | x4 |] %34
V:3
 [G,,G,]2 | G,4 F,D, | [G,,D,]2 [G,,G,]2 [B,,G,]2 | [D,F,]2 [D,F,]2 [D,F,]2 | G,4 G,2 | %5
 [C,G,]2 [C,G,]2 [C,G,]2 | [G,,G,]2 [B,,G,]2 [G,,G,]2 | [A,,E,]2 [A,,E,]2 (A,G,) | %8
 [D,F,]4 [D,F,]2 | G,4 F,D, | [G,,D,]2 [G,,G,]2 [B,,G,]2 | [D,F,]2 [D,F,]2 [D,F,]2 | G,4 G,2 | %13
 [C,G,]2 [C,A,]2 [C,C]2 | [D,B,]2 [D,A,]2 [D,B,]2 | [D,G,]2 [D,G,]2 [D,F,]2 | [G,,G,]4 || G,>A, | %18
 [G,B,]4 G,>A, | [G,B,]4 [G,B,]>[G,,G,] | [B,,G,]2 [A,,F,]2 [G,,G,]2 | [D,F,]4 [D,F,]>[D,G,] | %22
 [D,A,]4 [D,F,]>[D,G,] | [D,A,]4 [D,A,][C,F,] | [B,,G,]2 [B,,G,]2 [A,,F,]2 | [G,,G,]4 [G,,G,]2 | %26
 G,4 F,D, | [G,,D,]2 [G,,G,]2 [B,,G,]2 | [D,F,]2 [D,F,]2 [D,F,]2 | G,4 G,2 | %30
 [C,G,]2 [C,A,]2 [C,C]2 | [D,B,]2 [D,A,]2 [D,B,]2 | [D,G,]2 [D,G,]2 [D,F,]2 | [G,,G,]4 |] %34
V:4
 x2 | (G,,2 B,,2) D,D, | x6 | x6 | G,4 G,2 | x6 | x6 | x4 ^C,2 | x6 | (G,,2 B,,2) D,D, | x6 | x6 | %12
 G,4 G,2 | x6 | x6 | x6 | x4 || G,>G, | x4 G,>G, | x6 | x6 | x6 | x6 | x6 | x6 | x6 | %26
 (G,,2 B,,2) D,D, | x6 | x6 | G,4 G,2 | x6 | x6 | x6 | x4 |] %34

